apps/site/public/icons/technologies/mongodbsimple.svg

<svg width="15" height="32" viewBox="0 0 15 32" fill="none" xmlns="http://www.w3.org/2000/svg">
    <path
      fillRule="evenodd"
      clipRule="evenodd"
      d="M8.88795 2.83463C10.2488 4.2257 12.9549 6.99194 14.2726 12.7401C14.4458 13.7185 14.5366 14.7095 14.5443 15.7027C14.5707 17.8182 14.1477 19.9156 13.3025 21.8593C12.4573 23.803 11.2088 25.5497 9.63774 26.9864L9.59973 27.0207C9.26491 27.3281 8.91095 27.6145 8.53994 27.8782L8.48964 27.9113C8.18549 29.2608 7.95635 30.6257 7.80323 32H7.15372C7.00852 30.4623 6.81283 28.9884 6.7377 28.4225C6.71797 28.2739 6.70655 28.1879 6.70655 28.1798L6.61265 28.1147C5.77645 27.5157 -0.363168 22.8193 0.0169244 14.9414C0.424965 6.49106 5.43324 2.33828 6.41254 1.57911C7.04193 0.913875 7.06764 0.663029 7.11683 0C7.12357 0.01589 7.12983 0.0320177 7.1355 0.0466186C7.14205 0.0634952 7.14781 0.0783319 7.15261 0.0884039C7.15261 0.0884039 7.62996 1.26307 8.10619 1.92389C8.20443 2.13593 8.48813 2.42593 8.88795 2.83463ZM7.45109 12.6152C7.07659 12.6152 7.07659 23.6657 7.07659 23.6657C7.07659 24.5255 7.59977 26.8107 8.11178 26.8704C8.11178 26.8704 7.73839 12.6152 7.45109 12.6152Z"
      fill="#00684A"
    />
  </svg>

<svg xmlns="http://www.w3.org/2000/svg" width="15" height="32" fill="none" viewBox="0 0 15 32"><path fill="#00684a" d="M8.888 2.835c1.36 1.39 4.067 4.157 5.385 9.905.173.979.264 1.97.271 2.963a15 15 0 0 1-1.242 6.156 15.1 15.1 0 0 1-3.664 5.127l-.038.035a11 11 0 0 1-1.06.857l-.05.033A38 38 0 0 0 7.803 32h-.65c-.144-1.538-.34-3.012-.415-3.578l-.031-.242-.094-.065c-.837-.6-6.976-5.296-6.596-13.174C.425 6.491 5.433 2.338 6.413 1.58c.629-.666.655-.917.704-1.58l.019.047.017.041s.477 1.175.953 1.836c.098.212.382.502.782.91m-1.437 9.78c-.374 0-.374 11.05-.374 11.05 0 .86.523 3.146 1.035 3.205 0 0-.374-14.255-.66-14.255"/></svg>
